X:1565
T:Brännvinsdans
T:(SvL Skåne nr. 1107)
R:Engelska
C:efter Nils "Rusken" Mårtensson
O:Skåne
Z:Åke Persson 2014-12-01
N:Spelas ofta till dans som engelska
M:2/4
L:1/16
K:A
(3(efg) |: aece Acea | fdBG E2Bd | cefe dcBA | e2e2 e2 (3(efg) |
           aece Acea | fdBG E2Bd | cedc BAGB | A2A2 A2 :|
   |: ed | ceAe ceAe | dfBf dfBd | cefe dcBA | EeeE e2 ed |
           ceAe ceAe | dfBf dfBd | cedc BAGB | A2A2 A2 :|
(:musicend:)
(:music:)
